public/fonts/icons/media.svg

<?xml version="1.0" encoding="utf-8"?>

<!DOCTYPE svg PUBLIC "-//W3C//DTD SVG 1.1//EN" "http://www.w3.org/Graphics/SVG/1.1/DTD/svg11.dtd">
<svg version="1.1" xmlns="http://www.w3.org/2000/svg" xmlns:xlink="http://www.w3.org/1999/xlink" width="32" height="32" viewBox="0 0 32 32">
<g>
</g>
	<path d="M23 28v2c5.117-0.024 7.038 0.309 7.038 0.858 0 0.613-0.491 1.142-8.011 1.142-6.026 0-8.010-0.528-8.010-1.142 0-0.55 1.865-0.883 6.982-0.858v-2c-3.115 0.048-7-1.972-7-6v-4c0-0.46-0.002-2 1-2 1.001 0 1 1.54 1 2v4c0 3.17 3.998 4 6 4s6.035-0.844 6.035-4.013l-0.034-3.987c0-0.46-0.064-2 1-2 0.938 0 1 1.54 1 2v4c0 4.028-3.885 6.048-7 6zM22 24c-2.002 0-3.977-2.013-3.977-4.016v-10.012c0-2.002 1.975-3.972 3.977-3.972s4 1.998 4 4v10c0 2.002-1.998 4-4 4zM17 6h-1v-4h-10v8h10v2l-9.992-0.025-0.008 8.025h6v2c0 0.008 0.017-0.021 0.017-0.013l-12.017 0.013v-22h22v4c-0.33-0.083-0.664 0-1 0-1.65 0-3.066 0.746-4 2zM4 2h-2v2l2.005-0.035-0.005-1.965zM4 6h-2v2h2v-2zM4 10h-2v2h2v-2zM4 14h-2v2h2v-2zM4 18h-2v2h2v-2zM20 2h-2v2h2v-2z" fill="#000000"></path>
</svg>

<svg xmlns="http://www.w3.org/2000/svg" width="32" height="32" viewBox="0 0 32 32"><title>Media</title><path d="M23 28v2c5.117-.024 7.038.31 7.038.858 0 .613-.49 1.142-8.01 1.142-6.027 0-8.01-.528-8.01-1.142 0-.55 1.864-.883 6.98-.858v-2c-3.114.048-7-1.972-7-6v-4c0-.46 0-2 1-2 1.002 0 1 1.54 1 2v4c0 3.17 4 4 6 4s6.036-.844 6.036-4.013L28 18c0-.46-.064-2 1-2 .938 0 1 1.54 1 2v4c0 4.028-3.885 6.048-7 6zm-1-4c-2.002 0-3.977-2.013-3.977-4.016V9.972C18.023 7.97 19.998 6 22 6s4 1.998 4 4v10c0 2.002-1.998 4-4 4zM17 6h-1V2H6v8h10v2l-9.992-.025L6 20h6v2c0 .008.017-.02.017-.013L0 22V0h22v4c-.33-.083-.664 0-1 0-1.65 0-3.066.746-4 2zM4 2H2v2l2.005-.035L4 2zm0 4H2v2h2V6zm0 4H2v2h2v-2zm0 4H2v2h2v-2zm0 4H2v2h2v-2zM20 2h-2v2h2V2z"/></svg>
